X:1
T:Go by Way of the Cross
T:Go by Way of the Cross
T:Samuel William Beazley
T:James Rowe, 1915
T:Public Domain Courtesy of the Cyber Hymnal™
C:Samuel William Beazley
Z:Public Domain
Z:Courtesy of the Cyber Hymnal™
%%score ( 1 2 ) ( 3 4 )
L:1/8
Q:1/4=112
M:4/4
K:C
V:1 treble 
V:2 treble 
V:3 bass 
V:4 bass 
V:1
 [EG]2 [CE]>[DF] [EG]2 [FA]2 | [EG]2 [Ec]2 [Ec]4 | [Fd]2 [FA]>[Ac] [GB]2 [DF]2 | %3
w: 1.~If you would find the|bet- ter land,|If you would reach the|
w: 2.~If you would reach the|ci- ty gate,|Where ma- ny dear ones|
w: 3.~If you would live in|that glad place,|Where shall be crowned the|
 [EA]2 [CE]2 [EG]4 | [EG]2 [CE]>[DF] [EG]2 [FA]2 | [EG]2 [Ec]2 [Ec]4 | %6
w: gold- en strand,|There to a- bide with|Heav- en’s throng,|
w: watch and wait,|Look- ing for you, with|eyes of love,|
w: saved by grace,|If you would rest for-|ev- er there,|
 [DB]2 [Gd]>[Gd] [^FA]2 [Fd]2 |"^riten." [Gd]2 [^Fd]2 !fermata![=Fd]4 ||"^Refrain" c6 [CE]>[DF] | %9
w: Sing- ing the ev- er-|last- ing song,|Go by the|
w: Wait- ing to hear from|you a- bove,||
w: Al- ways so hap- py|and so fair,||
 [EG]2 [EG]>[FA] [EG]4 | B6 [FA]>[FB] | [Fd]2 [Ec]>[Ec] [Ec]4 | e6 [Ec]>[EG] | %13
w: way of the cross,|Go by the|way of the cross,|Go by the|
w: ||||
w: ||||
 [FA]2 [GA]>[GA] !fermata![^Fd]2 [Fc]2 | [Gc]4 [FB]4 | [Ec]8 |] %16
w: way of the cross, And|you’ll reach|home.|
w: |||
w: |||
V:2
 x8 | x8 | x8 | x8 | x8 | x8 | x8 | x8 || (E2 F2 E2) x2 | x8 | (F2 F2 F2) x2 | x8 | (G2 G2 G2) x2 | %13
 x8 | x8 | x8 |] %16
V:3
 [C,C]2 [C,G,]>[C,G,] [C,C]2 [C,C]2 | [C,C]2 [C,G,]2 [C,G,]4 | %2
w: ~ ~ ~ ~ ~|~ ~ ~|
 [G,B,]2 [G,B,]>[G,D] [G,D]2 [G,B,]2 | [C,C]2 [C,G,]2 [C,C]4 | [C,C]2 [C,G,]>[C,G,] [C,C]2 [C,C]2 | %5
w: ~ ~ ~ ~ ~|~ ~ ~|~ ~ ~ ~ ~|
 [C,C]2 [C,G,]2 [C,G,]4 | [D,G,]2 [D,B,]>[D,B,] [D,C]2 [D,C]2 | %7
w: ~ ~ ~|~ ~ ~ ~ ~|
 [G,B,]2 [A,C]2 [B,D]2 !fermata![A,C]2 || G,2 A,2 G,2 [C,G,]>[C,G,] | [C,C]2 [C,C]>[C,C] C4 | %10
w: ~ ~ ~ ~|~ go, go ~ ~|~ ~ ~ ~|
 D2 D2 D2 [G,D]>[G,D] | [C,C]2 [C,C]>[C,G,] G,2 G,2 | C6 [C,C]>[C,C] | %13
w: ~ ~ go, go ~|~ ~ ~ ~ ~|~ ~ go,|
 [F,C]2 [E,^C]>[E,C] !fermata![D,D]2 [A,D]2 | [G,E]4 [G,D]4 | [C,C]8 |] %16
w: go * * * *|||
V:4
 x8 | x8 | x8 | x8 | x8 | x8 | x8 | x8 || C,6 x2 | x4 C,2 C,2 | G,6 x2 | x4 C,4 | %12
 C,2 (E,G,) C2 x2 | x8 | x8 | x8 |] %16

